X:137
T: ALLES NEU MACHT DER MAI
N: B0628
O: Europa, Mitteleuropa, Deutschland
R: Kinder -, Jahreszeiten - Lied, Fruehling
M: 2/4
L: 1/8
K: A
 | ecc2 | dBB2 |
ABcd | eee2 |
ecc2 | dBB2 |
Acee | c2z2 |
BBBB | Bcd2 |
cccc | cde2 |
ecc2 | dBB2 |
Acee | A2z2

@@@ Tune index: 2355
